X:1
T: Glencoe
C:J Scott Skinner
R:Strathspey
Q: 128
K:Eb
M:4/4
L:1/16
|:E3G|B8 G4 E3G|B8 G4 e3c|B4 G4 E4 D2E2|G8 F4 E3G|
B8 G4 E3G|B8 e4 c4|B4 E4 G4 F4|E12 G3A|
G8 d4 G3A|G8 e4 G4|=A4 e4 G4 A4|B12 E3G|
B8 G4 E3G|B8 e4 c4|B4 E4 G4 F4|E12:|
